X: 1
M: 4/4
L: 1/4
%%score {RH | LH}
V: RH clef=treble
V: LH clef=bass
K: C
%
[V: RH] z4 | z4 | z4 | z4 | z4 | z4 | z4 | z4 |
[V: LH] "_5"C,2 "_4"D,2 | "_3"E,4 | "_4"D,2 "_5"C,2 | "_2"F,4 | "_2"F,2 "_3"E,2 | "_4"D,4 | "_1"G,2 "_2"F,2 | "_3"E,2 "_4"D,2 |
%
[V: RH] z4 | z4 | z4 | z4 | z4 | z4 | z4 | z4 |]
[V: LH] "_5"C,2 "_4"D,2 | "_3"E,4 | "_4"D,2 "_5"C,2 | "_2"F,4 | "_2"F,2 "_3"E,2 | "_4"D,4 | "_1"G,2 G,2 | "_5"C,4 |]
